X:1159
T:Folia
C:anon.
O:Spain
B:Hudson: "The Folia, the Saraband...", 1982
R:Folia
Z:Reconstructed by Richard Hudson. Transcribed by Frank Nordberg.
F:http://abc.musicaviva.com/tunes/spain/hudson-folia.abc
%Posted June 1st 2000 at abcusers by Frank Nordberg as an reply to
%Sigfrid Lundberg's request for information about the Folia.
M:3/4
L:1/4
K:Gdor
"Gm"BB|"D"A2A-|A"Gm"BB|"F"c2c-|ccd|
c2c|"Gm"B2B|"D"A2A-|AAG|
A2A-|A"Gm"BB|"F"c2c-|cBA|
"Gm"G2G|"D"^F2F|"Gm"G2G-|G|]
W:
W:
W:  From Musica Viva - http://www.musicaviva.com
W:  the Internet center for free sheet music downloads.
